!!!OTL: Die drei Hexen Hyet ich die gnad, so wolt ich mich aufschwingen
!!!ARE: Europa, Mitteleuropa, Deutschland
!!!YOR: 4, S. 225
!!    14?? Handschrift (15. Jh.)
!!!SCT: Q1080H
!!!YEM: Copyright 1995, estate of Helmut Schaffrath.
**kern
*ICvox
*Ivox
*M6/8
*k[b-]
*F:
{8f
=1
4cc
8cc
4cc
8cc
=2
4dd
8ff
4ee
8dd
=3
4.cc
4a}
{8cc
=4
4b-
8a
4f
8f
=5
4a
8b-
4cc
8b-
=6
4.g
4a}
{8cc
=7
4b-
8a
4f
8f
=8
4a
8b-
4cc
8b-
=9
4.g
4f}
==
!!!AGN: Ballade, geistlich
!! Melodievergleich zu Q0080, anderes Lied. Kontrafaktur einer Ballade.
!!!ONB: ESAC (Essen Associative Code) Database: BALLADE
!!!AMT: compound duple
!!!AIN: vox
!!!EED: Helmut Schaffrath
!!!EEV: 1.0
*-
